icons/tokens/0xBcca60bB61934080951369a648Fb03DF4F96263C/logo.svg

<svg width="32" height="32" viewBox="0 0 32 32" fill="none" xmlns="http://www.w3.org/2000/svg">
<path fill-rule="evenodd" clip-rule="evenodd" d="M30.7821 9.87712C31.5834 11.8118 32 13.9059 32 16C32 18.0941 31.5834 20.1882 30.7821 22.1229C29.9808 24.0576 28.7946 25.833 27.3136 27.3136C25.833 28.7946 24.0576 29.9808 22.1229 30.7821C20.1882 31.5834 18.0941 32 16 32C13.9059 32 11.8118 31.5834 9.87712 30.7821C7.9424 29.9808 6.16704 28.7946 4.6864 27.3136C3.20544 25.833 2.0192 24.0576 1.21792 22.1229C0.41664 20.1882 0 18.0941 0 16C0 13.9059 0.41664 11.8118 1.21792 9.87712C2.0192 7.9424 3.20544 6.16704 4.6864 4.6864C6.16704 3.20544 7.9424 2.0192 9.87712 1.21792C11.8118 0.41664 13.9059 0 16 0C18.0941 0 20.1882 0.41664 22.1229 1.21792C24.0576 2.0192 25.833 3.20544 27.3136 4.6864C28.7946 6.16704 29.9808 7.9424 30.7821 9.87712ZM28.9344 10.6424C29.6354 12.3354 30 14.1676 30 16C30 17.8324 29.6354 19.6646 28.9344 21.3576C28.2332 23.0504 27.195 24.6038 25.8996 25.8996C24.6038 27.195 23.0504 28.2332 21.3576 28.9344C19.6646 29.6354 17.8324 30 16 30C14.1676 30 12.3354 29.6354 10.6424 28.9344C8.9496 28.2332 7.39622 27.195 6.10044 25.8996C4.80498 24.6038 3.7668 23.0504 3.06556 21.3576C2.36462 19.6646 2 17.8324 2 16C2 14.1676 2.36462 12.3354 3.06556 10.6424C3.7668 8.9496 4.80498 7.39622 6.10044 6.10044C7.39622 4.80498 8.9496 3.7668 10.6424 3.06556C12.3354 2.36462 14.1676 2 16 2C17.8324 2 19.6646 2.36462 21.3576 3.06556C23.0504 3.7668 24.6038 4.80498 25.8996 6.10044C27.195 7.39622 28.2332 8.9496 28.9344 10.6424Z" fill="url(#paint0_linear)"/>
<path fill-rule="evenodd" clip-rule="evenodd" d="M29 16C29 14.2986 28.6615 12.5971 28.0104 11.0252C27.3594 9.4532 26.3956 8.01072 25.1923 6.8077C23.9893 5.60442 22.5468 4.6406 20.9748 3.98956C19.4029 3.33852 17.7014 3 16 3C14.2986 3 12.5971 3.33852 11.0252 3.98956C9.4532 4.6406 8.01072 5.60442 6.8077 6.8077C5.60442 8.01072 4.6406 9.4532 3.98956 11.0252C3.33852 12.5971 3 14.2986 3 16C3 17.7014 3.33852 19.4029 3.98956 20.9748C4.6406 22.5468 5.60442 23.9893 6.8077 25.1923C8.01072 26.3956 9.4532 27.3594 11.0252 28.0104C12.5971 28.6615 14.2986 29 16 29C17.7014 29 19.4029 28.6615 20.9748 28.0104C22.5468 27.3594 23.9893 26.3956 25.1923 25.1923C26.3956 23.9893 27.3594 22.5468 28.0104 20.9748C28.6615 19.4029 29 17.7014 29 16Z" fill="#2775CA"/>
<path fill-rule="evenodd" clip-rule="evenodd" d="M13.6194 25.0057C13.6194 25.3234 13.3984 25.4292 13.0779 25.4292C9.06528 24.1449 6.25 20.4967 6.25 16.2062C6.25 11.9156 9.06528 8.2674 13.0779 6.9831C13.3995 6.88013 13.6194 7.0889 13.6194 7.41377C13.6194 7.66296 13.6194 7.91241 13.6194 8.1616C13.6194 8.38041 13.5056 8.59201 13.2916 8.69781C10.1484 9.87631 7.98186 12.7767 7.98186 16.2062C7.98186 19.6428 10.2556 22.6418 13.2916 23.7145C13.5056 23.8203 13.6194 24.0391 13.6194 24.2507C13.6194 24.5025 13.6194 24.7542 13.6194 25.0057Z" fill="white"/>
<path fill-rule="evenodd" clip-rule="evenodd" d="M16.8695 22.3244C16.8695 22.536 16.6485 22.7476 16.4347 22.7476C16.1448 22.7476 15.8552 22.7476 15.5653 22.7476C15.3516 22.7476 15.1306 22.536 15.1306 22.3244C15.1306 21.894 15.1306 21.4633 15.1306 21.0329C13.3985 20.8213 12.5363 19.8544 12.2084 18.4573C12.2084 18.2455 12.3153 18.0339 12.5363 18.0339C12.8592 18.0339 13.1824 18.0339 13.5056 18.0339C13.7266 18.0339 13.8334 18.1397 13.9403 18.3513C14.1613 19.1066 14.5887 19.7486 16 19.7486C17.0834 19.7486 17.8387 19.2124 17.8387 18.3513C17.8387 17.4977 17.4113 17.173 15.8932 16.9612C13.6184 16.644 12.5363 15.9945 12.5363 14.1668C12.5363 12.7767 13.6195 11.704 15.1306 11.4852C15.1306 11.0571 15.1306 10.629 15.1306 10.2009C15.1306 9.98932 15.3516 9.77051 15.5653 9.77051C15.8552 9.77051 16.1448 9.77051 16.4347 9.77051C16.6485 9.77051 16.8695 9.98932 16.8695 10.2009C16.8695 10.629 16.8695 11.0571 16.8695 11.4852C18.1666 11.704 19.0363 12.4521 19.25 13.6306C19.25 13.8494 19.1432 14.061 18.9222 14.061C18.6346 14.061 18.3473 14.061 18.0597 14.061C17.8387 14.061 17.7319 13.9552 17.625 13.7434C17.4113 12.9883 16.8695 12.6709 15.8932 12.6709C14.8097 12.6709 14.2682 13.2071 14.2682 13.9552C14.2682 14.703 14.5887 15.1335 16.2137 15.3523C18.496 15.6596 19.5779 16.312 19.5779 18.1397C19.5779 19.5298 18.4945 20.7155 16.8695 21.0329V22.3244Z" fill="white"/>
<path fill-rule="evenodd" clip-rule="evenodd" d="M18.9221 25.4292C18.6016 25.5422 18.3806 25.3234 18.3806 25.0057C18.3806 24.7542 18.3806 24.5025 18.3806 24.2507C18.3806 24.0391 18.4944 23.8203 18.7084 23.7145C21.8516 22.536 24.0181 19.6428 24.0181 16.2061C24.0181 12.7767 21.7444 9.7705 18.7084 8.69781C18.4944 8.592 18.3806 8.3804 18.3806 8.16159C18.3806 7.9124 18.3806 7.66295 18.3806 7.41377C18.3806 7.0889 18.6016 6.98309 18.9221 6.98309C22.8279 8.26739 25.75 11.9156 25.75 16.2061C25.75 20.4967 22.9347 24.1449 18.9221 25.4292Z" fill="white"/>
<defs>
<linearGradient id="paint0_linear" x1="19.008" y1="-4.64" x2="-4.8" y2="15.392" gradientUnits="userSpaceOnUse">
<stop stop-color="#B6509E"/>
<stop offset="1" stop-color="#2EBAC6"/>
</linearGradient>
</defs>
</svg>

<svg width="32" height="32" fill="none" xmlns="http://www.w3.org/2000/svg"><path fill-rule="evenodd" clip-rule="evenodd" d="M30.782 9.877A16.054 16.054 0 0132 16c0 2.094-.417 4.188-1.218 6.123a16.046 16.046 0 01-3.468 5.19 16.046 16.046 0 01-5.191 3.47A16.054 16.054 0 0116 32c-2.094 0-4.188-.417-6.123-1.218a16.046 16.046 0 01-5.19-3.468 16.046 16.046 0 01-3.47-5.191A16.055 16.055 0 010 16c0-2.094.417-4.188 1.218-6.123a16.047 16.047 0 013.468-5.19 16.047 16.047 0 015.191-3.47A16.054 16.054 0 0116 0c2.094 0 4.188.417 6.123 1.218a16.046 16.046 0 015.19 3.468 16.046 16.046 0 013.47 5.191zm-1.848.765A14.05 14.05 0 0130 16a14.05 14.05 0 01-1.066 5.358A14.053 14.053 0 0125.9 25.9a14.053 14.053 0 01-4.542 3.034A14.05 14.05 0 0116 30a14.05 14.05 0 01-5.358-1.066A14.052 14.052 0 016.1 25.9a14.053 14.053 0 01-3.034-4.542A14.052 14.052 0 012 16c0-1.832.365-3.665 1.066-5.358A14.052 14.052 0 016.1 6.1a14.052 14.052 0 014.542-3.034A14.052 14.052 0 0116 2c1.832 0 3.665.365 5.358 1.066A14.053 14.053 0 0125.9 6.1a14.052 14.052 0 013.034 4.542z" fill="url(#paint0_linear)"/><path fill-rule="evenodd" clip-rule="evenodd" d="M29 16c0-1.701-.338-3.403-.99-4.975a13.037 13.037 0 00-2.818-4.217 13.037 13.037 0 00-4.217-2.818A13.044 13.044 0 0016 3c-1.701 0-3.403.339-4.975.99a13.038 13.038 0 00-4.217 2.818 13.038 13.038 0 00-2.818 4.217A13.044 13.044 0 003 16c0 1.701.339 3.403.99 4.975a13.037 13.037 0 002.818 4.217 13.037 13.037 0 004.217 2.818c1.572.651 3.274.99 4.975.99 1.701 0 3.403-.338 4.975-.99a13.036 13.036 0 004.217-2.818 13.036 13.036 0 002.818-4.217C28.661 19.403 29 17.7 29 16z" fill="#2775CA"/><path fill-rule="evenodd" clip-rule="evenodd" d="M13.62 25.006c0 .317-.222.423-.542.423-4.013-1.284-6.828-4.932-6.828-9.223 0-4.29 2.815-7.939 6.828-9.223.322-.103.541.106.541.43v.749a.59.59 0 01-.327.536c-3.144 1.178-5.31 4.079-5.31 7.508 0 3.437 2.274 6.436 5.31 7.509a.598.598 0 01.327.536v.755z" fill="#fff"/><path fill-rule="evenodd" clip-rule="evenodd" d="M16.87 22.324c0 .212-.222.424-.435.424h-.87c-.213 0-.434-.212-.434-.424v-1.291c-1.732-.212-2.595-1.179-2.923-2.576 0-.212.107-.423.328-.423h.97c.22 0 .327.106.434.317.221.756.649 1.398 2.06 1.398 1.083 0 1.839-.537 1.839-1.398 0-.853-.428-1.178-1.946-1.39-2.275-.317-3.357-.966-3.357-2.794 0-1.39 1.084-2.463 2.595-2.682v-1.284c0-.212.22-.43.434-.43h.87c.213 0 .434.218.434.43v1.284c1.298.219 2.167.967 2.381 2.146 0 .218-.107.43-.328.43h-.862c-.221 0-.328-.106-.435-.318-.214-.755-.756-1.072-1.732-1.072-1.083 0-1.625.536-1.625 1.284s.32 1.178 1.946 1.397c2.282.308 3.364.96 3.364 2.788 0 1.39-1.084 2.575-2.709 2.893v1.291z" fill="#fff"/><path fill-rule="evenodd" clip-rule="evenodd" d="M18.922 25.43c-.32.112-.541-.107-.541-.424v-.755c0-.212.113-.43.327-.537 3.144-1.178 5.31-4.071 5.31-7.508 0-3.43-2.274-6.435-5.31-7.508a.59.59 0 01-.327-.536v-.748c0-.325.22-.43.541-.43 3.906 1.283 6.828 4.932 6.828 9.222 0 4.29-2.815 7.939-6.828 9.223z" fill="#fff"/><defs><linearGradient id="paint0_linear" x1="19.008" y1="-4.64" x2="-4.8" y2="15.392" gradientUnits="userSpaceOnUse"><stop stop-color="#B6509E"/><stop offset="1" stop-color="#2EBAC6"/></linearGradient></defs></svg>
